X:8
T:GB/7e/8 Rose of Britain's Isles C:Tooke
%%VWML:GB-7e-8-0
F:http://www.vwml.org/record/GB/7e/8
L:1/8
M:2/4
I:linebreak $
K:Fdor
c | BcAF | c>d !fermata!e"^(a)"G | BGFE | F3 :| F | AFFF |$[M:3/4] f2 e3 c |[M:2/4] cc Bd | c3 c | Bc AF | c>d !fermata!e"^(b)"G | BG FE | F3 |:$ c | BcAF | c>d !fermata!e"^(a) var." G/G/ | BGFE | F3 :| F | AF FF |$[M:3/4] f2 e3 c |[M:2/4] cc Bd | c3 c | Bc AF | c>d !fermata!e"^(b) var." G/G/ | BG FE | F3 |]

